svgs/sharp-solid/oil-well.svg

<svg xmlns="http://www.w3.org/2000/svg" viewBox="0 0 576 512"><!--! Font Awesome Pro 6.6.0 by @fontawesome - https://fontawesome.com License - https://fontawesome.com/license (Commercial License) Copyright 2024 Fonticons, Inc. --><path d="M528.3 61.3c-11.4-42.7-55.3-68-98-56.6L384 17.1l32.8 122.4L308.5 167.5l-6.3-18.1L294.7 128l-45.4 0-7.5 21.4-13.6 39L96 222.6 96 184l0-24-48 0 0 24 0 264-16 0L0 448l0 64 32 0 512 0 32 0 0-64-32 0-137.3 0L340 257.5l-62.2 16.1L305.3 352l-66.6 0L265 277l-74.6 19.3L137.3 448 96 448l0-159.2 337.4-87.5 33.5 124.9 46.4-12.4c42.7-11.4 68-55.3 56.6-98L528.3 61.3zM205.1 448l11.2-32 111.4 0 11.2 32-133.8 0zM272.3 64l-.3-.9-.3 .9 .6 0z"/></svg>

<svg xmlns="http://www.w3.org/2000/svg" viewBox="0 0 576 512"><!--! Font Awesome Pro 6.4.0 by @fontawesome - https://fontawesome.com License - https://fontawesome.com/license (Commercial License) Copyright 2023 Fonticons, Inc. --><path d="M528.3 61.3c-11.4-42.7-55.3-68-98-56.6L384 17.1l32.8 122.4L308.5 167.5l-6.3-18.1L294.7 128H249.3l-7.5 21.4-13.6 39L96 222.6V184 160H48v24V448H32 0v64H32 544h32V448H544 406.7L340 257.5l-62.2 16.1L305.3 352H238.7L265 277l-74.6 19.3L137.3 448H96V288.8l337.4-87.5 33.5 124.9 46.4-12.4c42.7-11.4 68-55.3 56.6-98L528.3 61.3zM205.1 448l11.2-32H327.7l11.2 32H205.1zM272.3 64l-.3-.9-.3 .9h.6z"/></svg>
